packages/ndla-icons/svg/contentType/learning-path-summary.svg

<svg xmlns="http://www.w3.org/2000/svg" data-license="Apache License 2.0" data-source="Material Design" viewBox="0 0 24 24">
  <path d="M7 5h14v2H7V5m0 8v-2h14v2H7M4 4.5A1.5 1.5 0 0 1 5.5 6 1.5 1.5 0 0 1 4 7.5 1.5 1.5 0 0 1 2.5 6 1.5 1.5 0 0 1 4 4.5m0 6A1.5 1.5 0 0 1 5.5 12 1.5 1.5 0 0 1 4 13.5 1.5 1.5 0 0 1 2.5 12 1.5 1.5 0 0 1 4 10.5M7 19v-2h14v2H7m-3-2.5A1.5 1.5 0 0 1 5.5 18 1.5 1.5 0 0 1 4 19.5 1.5 1.5 0 0 1 2.5 18 1.5 1.5 0 0 1 4 16.5Z"/>
</svg>

<svg height="24" viewBox="0 0 24 24" width="24" xmlns="http://www.w3.org/2000/svg" data-license="Apache License 2.0" data-source="Material Design">
    <path d="M7,5H21V7H7V5M7,13V11H21V13H7M4,4.5A1.5,1.5 0 0,1 5.5,6A1.5,1.5 0 0,1 4,7.5A1.5,1.5 0 0,1 2.5,6A1.5,1.5 0 0,1 4,4.5M4,10.5A1.5,1.5 0 0,1 5.5,12A1.5,1.5 0 0,1 4,13.5A1.5,1.5 0 0,1 2.5,12A1.5,1.5 0 0,1 4,10.5M7,19V17H21V19H7M4,16.5A1.5,1.5 0 0,1 5.5,18A1.5,1.5 0 0,1 4,19.5A1.5,1.5 0 0,1 2.5,18A1.5,1.5 0 0,1 4,16.5Z" />
</svg>
